Catalina-dark/actions/22/insert-table.svg

<svg viewBox="0 0 22 22" xmlns="http://www.w3.org/2000/svg">
<defs>
<style id="current-color-scheme" type="text/css">.ColorScheme-Text {
        color:#f2f2f2;
      }
      .ColorScheme-Highlight {
        color:#3daee9;
      }</style>
</defs>
<path class="ColorScheme-Text" d="m3 3v16h9v-1h-2v-2h2v-1h-2v-2h2v-1h-2v-2h2v2h1v-2h2v2h1v-2h2v2h1v-9h-16zm1 1h5v5h-5v-5zm6 0h2v2h-2v-2zm3 0h2v2h-2v-2zm3 0h2v2h-2v-2zm-6 3h2v2h-2v-2zm3 0h2v2h-2v-2zm3 0h2v2h-2v-2zm-12 3h2v2h-2v-2zm3 0h2v2h-2v-2zm-3 3h2v2h-2v-2zm3 0h2v2h-2v-2zm9 1v2h-2v1h2v2h1v-2h2v-1h-2v-2h-1zm-12 2h2v2h-2v-2zm3 0h2v2h-2v-2z" fill="currentColor"/>
<path class="ColorScheme-Highlight" d="m4 4v5h5v-5h-5z" fill="currentColor"/>
</svg>

<svg xmlns="http://www.w3.org/2000/svg" viewBox="0 0 22 22">
  <defs id="defs3051">
    <style type="text/css" id="current-color-scheme">
      .ColorScheme-Text {
        color:#f2f2f2;
      }
      .ColorScheme-Highlight {
        color:#3daee9;
      }
      </style>
  </defs>
 <path 
     style="fill:currentColor;fill-opacity:1;stroke:none" 
     d="M 3 3 L 3 19 L 12 19 L 12 18 L 10 18 L 10 16 L 12 16 L 12 15 L 10 15 L 10 13 L 12 13 L 12 12 L 10 12 L 10 10 L 12 10 L 12 12 L 13 12 L 13 10 L 15 10 L 15 12 L 16 12 L 16 10 L 18 10 L 18 12 L 19 12 L 19 3 L 3 3 z M 4 4 L 6 4 L 7 4 L 9 4 L 9 9 L 4 9 L 4 7 L 4 6 L 4 4 z M 10 4 L 12 4 L 12 6 L 10 6 L 10 4 z M 13 4 L 15 4 L 15 6 L 13 6 L 13 4 z M 16 4 L 18 4 L 18 6 L 16 6 L 16 4 z M 10 7 L 12 7 L 12 9 L 10 9 L 10 7 z M 13 7 L 15 7 L 15 9 L 13 9 L 13 7 z M 16 7 L 18 7 L 18 9 L 16 9 L 16 7 z M 4 10 L 6 10 L 6 12 L 4 12 L 4 10 z M 7 10 L 9 10 L 9 12 L 7 12 L 7 10 z M 4 13 L 6 13 L 6 15 L 4 15 L 4 13 z M 7 13 L 9 13 L 9 15 L 7 15 L 7 13 z M 16 14 L 16 16 L 14 16 L 14 17 L 16 17 L 16 19 L 17 19 L 17 17 L 19 17 L 19 16 L 17 16 L 17 14 L 16 14 z M 4 16 L 6 16 L 6 18 L 4 18 L 4 16 z M 7 16 L 9 16 L 9 18 L 7 18 L 7 16 z "
     class="ColorScheme-Text"
     />
 <path 
     style="fill:currentColor;fill-opacity:1;stroke:none" 
     d="M 4 4 L 4 7 L 4 9 L 9 9 L 9 7 L 9 4 L 7 4 L 4 4 z "
     class="ColorScheme-Highlight"
     />
</svg>
